X:1
T:O Lord, send out thy light and truth
T:O Lord, send out thy light and truth (Joseph Key)
C:Joseph Key
Z:p18,  Five Anthems and
Z:Four Hymns ... Book IV,
Z:London: [c1790]
%%score [ 1 2 3 4 ]
L:1/8
M:2/2
K:C
V:1 treble nm="Soprano" snm="S."
V:2 treble nm="Alto" snm="A."
V:3 treble-8 transpose=-12 nm="Tenor" snm="T."
V:4 bass nm="Bass" snm="B."
V:1
 c4 c2 B2 | (c3 B A2) B2 | (c2 dc B2) A2 | ^G8 | c4 c2 ^G2 | (A^GAB c2) B2 | A4 G4 | G8 |: %8
w: Why art thou|then _ _ so|sad, _ _ _ my|soul,|And frett’st thus,|frett’st _ _ _ _ thus|in my|breast?|
w: O Lord, send|out _ _ thy|light _ _ _ and|truth,|And lead me,|lead _ _ _ _ me|with thy|grace,|
w: Then shall I|to _ _ thy|al- * * * tar|go,|With joy, with|joy _ _ _ _ to|wor- ship|there;|
 c4 c2 c2 | B4 c4 | c4 d4 | B8 | ^G4 A2 G2 | (A2 B2 c2 d2 | e4) (d2 c2) | B4 z4 | z8 | z8 | z8 | %19
w: Still trust in|God, for|him to|praise|I hold it|al- * * *|* ways _|best,||||
w: Which may con-|duct me|to thy|hill,|And to thy|dwel- * * *|* ling _|place,||||
w: And on my|harp give|thanks to|thee,|O God, my|God _ _ _|_ most _|dear,||||
 ^G4 A2 B2 | (c2 B2 A4 | B2 A2) ^G4 | A8 :| %23
w: I hold it|al- * *|* * ways|best.|
w: and to thy|dwel- * *|* * ling|place.|
w: O God, my|God _ _|_ _ most|dear.|
V:2
 E4 E2 E2 | E6 G2 | (G4 F2) E2 | E8 | z8 | E4 E2 E2 | (C2 F2) D4 | E8 |: G4 G2 G2 | G4 G4 | A4 A4 | %11
w: Why art thou|then so|sad, _ my|soul,||And frett’st thus|in _ my|breast?|Still trust in|God, for|him to|
w: O Lord, send|out thy|light _ and|truth,||And lead me|with _ thy|grace,|Which may con-|duct me|to thy|
w: Then shall I|to thy|al- * tar|go,||With joy to|wor- * ship|there;|And on my|harp give|thanks to|
 ^G8 | z8 | z8 | z8 | E4 C2 D2 | (E2 ^F2 G2 E2 | A2 G2) F4 | E8 | E4 E2 G2 | (G4 F4- | F4) E4 | %22
w: praise||||I hold it|al- * * *|* * ways|best,|I hold it|al- *|* ways|
w: hill,||||And to thy|dwel- * * *|* * ling|place,|and to thy|dwel- *|* ling|
w: thee,||||O God, my|God _ _ _|_ _ most|dear,|O God, my|God _|_ most|
 E8 :| %23
w: best.|
w: place.|
w: dear.|
V:3
 A4 A2 ^G2 | (A3 B c2) d2 | (e2 fe d2) c2 | B8 | e4 e2 B2 | (cdcB A2) ^G2 | A4 B4 | c8 |: %8
w: Why art thou|then _ _ so|sad, _ _ _ my|soul,|And frett’st thus,|frett’st _ _ _ _ thus|in my|breast?|
w: O Lord, send|out _ _ thy|light _ _ _ and|truth,|And lead me,|lead _ _ _ _ me|with thy|grace,|
w: Then shall I|to _ _ thy|al- * * * tar|go,|With joy, with|joy _ _ _ _ to|wor- ship|there;|
 e4 e2 e2 | d4 e4 | f4 f4 | e8 | B4 c2 B2 | (A2 ^G2 A2 B2 | c4) (B2 A2) | ^G4 z4 | z8 | z8 | z8 | %19
w: Still trust in|God, for|him to|praise|I hold it|al- * * *|* ways _|best,||||
w: Which may con-|duct me|to thy|hill,|And to thy|dwel- * * *|* ling _|place,||||
w: And on my|harp give|thanks to|thee,|O God, my|God _ _ _|_ most _|dear,||||
 B4 c2 d2 | (e2 d2 c4 | d2 c2) B4 | A8 :| %23
w: I hold it|al- * *|* * ways|best.|
w: and to thy|dwel- * *|* * ling|place.|
w: O God, my|God _ _|_ _ most|dear.|
V:4
 A,,4 A,,2 E,2 | A,6 G,2 | (C,4 D,2) A,,2 | E,8 | z8 | A,4 A,2 E,2 | (F,2 D,2) (G,2 G,,2) | C,8 |: %8
w: Why art thou|then so|sad, _ my|soul,||And frett’st thus|in _ my _|breast?|
w: O Lord, send|out thy|light _ and|truth,||And lead me|with _ thy _|grace,|
w: Then shall I|to thy|al- * tar|go,||With joy to|wor- * ship _|there;|
 C4 C2 C2 | G,4 C,4 | F,4 D,4 | E,8 | z8 | z8 | z8 | %15
w: Still trust in|God, for|him to|praise||||
w: Which may con-|duct me|to thy|hill,||||
w: And on my|harp give|thanks to|thee,||||
"^Notes:The alto part is printed in the source in the treble clef an octave above sounding pitch.Only the first verse of the text given here (verse 3 of Sternhold’s Ps. 43) is printed in the source:the subsequent verses have been added editorially.The original time signature is retorted time." E,4 A,2 G,2 | %16
w: I hold it|
w: And to thy|
w: O God, my|
 (C,2 D,2 E,4 | F,2 E,2) D,4 | E,8 | E,4 A,2 G,2 | (C,4 F,2 E,2 | D,4) E,4 | A,,8 :| %23
w: al- * *|* * ways|best,|I hold it|al- * *|* ways|best.|
w: dwel- * *|* * ling|place,|and to thy|dwel- * *|* ling|place.|
w: God _ _|_ _ most|dear,|O God, my|God _ _|_ most|dear.|

